X:31
T:Frosty Morning
S:Bernie Waugh
R:Reel
M:2/4
L:1/16
K:G
|:\
"Am"EGAB A2 AB|cBcd e2 (3DEF|"G"G2BA G2D2|"Em"GABc d3 D|
"Am"EGAB A2 AB|cBcd e2 ed|cBAc "G"BAG2|"Am"~A4A2 AG:|
|:\
"A(maj)"[E^c][c2a2][ca] [c2a2] aa|abag ed^cd|"G"edef gagf|"Em"edBd e3 e|
"F"(3AAA A2 c2cc|"Dm"dcd2 "E"e2ed|"F"cBAc "G"BAG2|"Am"~A4A2z2:|

